icons/type-icons/icons/application-x-srt.svg

<?xml version="1.0" encoding="UTF-8"?>
<svg width="22" height="22" version="1.1" xmlns="http://www.w3.org/2000/svg">
 <g id="layer1-43" transform="translate(-326 -534.36)" fill="#6c7a89">
  <path id="rect4156-9" transform="translate(326 534.36)" d="m8 8v7l4 4v-4h7v-7h-11zm1 1h9v5h-9v-5z"/>
  <path id="rect5636" transform="translate(326 534.36)" d="m3 3v11h4v-7h8v-4h-12zm1 1h2v2h-2v-2zm3 0h4v2h-4v-2zm5 0h2v2h-2v-2zm-8 3h2v3h-2v-3zm0 4h2v2h-2v-2z"/>
 </g>
</svg>

<?xml version="1.0" encoding="UTF-8" standalone="no"?>

<!-- Created with Inkscape (http://www.inkscape.org/) -->
<svg width="22" version="1.1" xmlns="http://www.w3.org/2000/svg" height="22" xmlns:inkscape="http://www.inkscape.org/namespaces/inkscape">
 <defs id="defs3871"/>
 <metadata id="metadata3874"/>
 <g inkscape:label="Capa 1" inkscape:groupmode="layer" id="layer1-43" transform="matrix(1 0 0 1 -326 -534.3622)">
  <path style="fill:#6c7a89" id="rect4156-9" d="M 8 8 L 8 15 L 12 19 L 12 15 L 19 15 L 19 8 L 8 8 z M 9 9 L 18 9 L 18 14 L 14 14 L 9 14 L 9 9 z " transform="matrix(1 0 0 1 326 534.3622)"/>
  <path style="fill:#6c7a89" id="rect5636" d="M 3 3 L 3 14 L 4 14 L 7 14 L 7 13 L 7 11 L 7 10 L 7 7 L 11 7 L 12 7 L 14 7 L 15 7 L 15 4 L 15 3 L 4 3 L 3 3 z M 4 4 L 6 4 L 6 6 L 4 6 L 4 4 z M 7 4 L 11 4 L 11 6 L 7 6 L 7 4 z M 12 4 L 14 4 L 14 6 L 12 6 L 12 4 z M 4 7 L 6 7 L 6 10 L 4 10 L 4 7 z M 4 11 L 6 11 L 6 13 L 4 13 L 4 11 z " transform="matrix(1 0 0 1 326 534.3622)"/>
 </g>
</svg>
